X:1
T:The Unsung Hero
T:8x32R
T:Howard Lasnik
P:Bonaparte's Retreat (2x)
C:Fiddler's Fakebook, arr. T. Traub 10-16-02
L:1/8
M:C
K:D
AB |\
"D"d2 d>e dBAB | "D"dBAF EDAB | "D"d2 d>e dBAB | dBAF EDDE ||
"D"F2 F>D AFED | "A"E2 E/D/E/F/ GFED | "D"F2 F>D AFED | "A"EF/G/ FE "D"D2 |]
